Sardi Mono Papirus Dark/16x16/places/folder-temp.svg

<?xml version="1.0" encoding="UTF-8" standalone="no"?>
<!-- Created with Inkscape (http://www.inkscape.org/) -->
<svg id="svg7384" xmlns:rdf="http://www.w3.org/1999/02/22-rdf-syntax-ns#" style="enable-background:new" xmlns="http://www.w3.org/2000/svg" xmlns:osb="http://www.openswatchbook.org/uri/2009/osb" height="16" width="16" version="1.1" xmlns:cc="http://creativecommons.org/ns#" xmlns:dc="http://purl.org/dc/elements/1.1/">
 <metadata id="metadata90">
  <rdf:RDF>
   <cc:Work rdf:about="">
    <dc:format>image/svg+xml</dc:format>
    <dc:type rdf:resource="http://purl.org/dc/dcmitype/StillImage"/>
    <dc:title>Paper Symbolic Icon Theme</dc:title>
   </cc:Work>
  </rdf:RDF>
 </metadata>
 <title id="title8473">Paper Symbolic Icon Theme</title>
 <defs id="defs7386">
  <filter id="filter7554" color-interpolation-filters="sRGB">
   <feBlend id="feBlend7556" in2="BackgroundImage" mode="darken"/>
  </filter>
 </defs>
 <g id="layer1" transform="translate(-527 -225)">
  <path id="rect12037" opacity=".72" style="color:#ffffff;enable-background:new" d="m2.8125 1c-0.0237 0.005-0.0393 0.0248-0.0625 0.0312-0.0791 0.0194-0.1594 0.0463-0.25 0.0938-0.0994 0.0521-0.198 0.1189-0.2812 0.2188-0.009 0.0108-0.023 0.0201-0.0313 0.0312-0.057 0.0759-0.0919 0.1737-0.125 0.2812-0.009 0.0308-0.0243 0.0602-0.0313 0.0938-0.0208 0.0807-0.0327 0.166-0.0312 0.25v7 1 1h1v-1h1v-1-6h5v3h3v8 1h1v-1h1c0.001-0.145-0.001-0.738 0-1v-1-1-1-2c-0.002-2.4169-0.001-2.3463 0-2.4375v-0.5625l-4-4h-0.5625-6.4375s-0.0556 0.001-0.0938 0c-0.0312-0.001-0.0625-0.001-0.0937 0zm10.188 14v1h1v-1h-1zm-1 0h-1v1h1v-1zm-1 0v-1h-1v1h1zm-1 0h-1v1h1v-1zm-1 0v-1h-1v1h1zm-1 0h-1v1h1v-1zm-1 0v-1h-1v1h1zm-1 0h-1v1h1v-1zm-1 0v-1h-1v1h1zm-1 0h-1v1h1v-1zm-1 0v-1h-1v1h1zm0-1h1v-1h-1v1zm0-1v-1h-1v1h1zm0-1h1v-1h-1v1z" fill-rule="evenodd" transform="translate(527 225)" fill="#fff"/>
 </g>
</svg>

<?xml version="1.0" encoding="UTF-8" standalone="no"?>
<svg xmlns="http://www.w3.org/2000/svg" width="16" height="16" viewBox="0 0 16 16">
 <defs>
  <style type="text/css" id="current-color-scheme">
   .ColorScheme-Text { color:#d3dae3; }
  </style>
 </defs>
 <path style="fill:currentColor;opacity:1" class="ColorScheme-Text" d="M 2.8125 1 C 2.7888 1.005 2.7732 1.02485 2.75 1.03125 C 2.6709 1.05065 2.5906 1.0775 2.5 1.125 C 2.4006 1.1771 2.30195 1.24385 2.21875 1.34375 C 2.20975 1.35455 2.1958 1.3639 2.1875 1.375 C 2.1305 1.4509 2.0956 1.54875 2.0625 1.65625 C 2.0535 1.68705 2.03825 1.7164 2.03125 1.75 C 2.01045 1.8307 1.9985 1.916 2 2 L 2 11 L 3 11 L 3 10 L 4 10 L 4 3 L 9 3 L 9 6 L 12 6 L 12 15 L 13 15 L 13 14 L 14 14 C 14.001 13.855 13.999 13.262 14 13 L 14 8 C 13.998 5.5831 13.999 5.6537 14 5.5625 L 14 5 L 10 1 L 3 1 C 3 1 2.94445 1.001 2.90625 1 C 2.87505 0.999 2.8437 0.999 2.8125 1 z M 13 15 L 13 16 L 14 16 L 14 15 L 13 15 z M 12 15 L 11 15 L 11 16 L 12 16 L 12 15 z M 11 15 L 11 14 L 10 14 L 10 15 L 11 15 z M 10 15 L 9 15 L 9 16 L 10 16 L 10 15 z M 9 15 L 9 14 L 8 14 L 8 15 L 9 15 z M 8 15 L 7 15 L 7 16 L 8 16 L 8 15 z M 7 15 L 7 14 L 6 14 L 6 15 L 7 15 z M 6 15 L 5 15 L 5 16 L 6 16 L 6 15 z M 5 15 L 5 14 L 4 14 L 4 15 L 5 15 z M 4 15 L 3 15 L 3 16 L 4 16 L 4 15 z M 3 15 L 3 14 L 2 14 L 2 15 L 3 15 z M 3 14 L 4 14 L 4 13 L 3 13 L 3 14 z M 3 13 L 3 12 L 2 12 L 2 13 L 3 13 z M 3 12 L 4 12 L 4 11 L 3 11 L 3 12 z"/>
</svg>
